components/Common/Svg/svgs/theWeek.svg

<svg
  width="285"
  height="37"
  viewBox="0 0 285 37"
  fill="none"
  xmlns="http://www.w3.org/2000/svg"
>
  <g opacity="0.5">
    <path
      fill-rule="evenodd"
      clip-rule="evenodd"
      d="M1.71981 9.22709H0.523438L0.706098 0.994629H34.9072L35.0899 9.22709H33.9721C33.5729 6.97236 33.0286 5.34303 32.3342 4.34145C31.6423 3.33987 30.8959 2.72506 30.0988 2.49817C29.3016 2.27011 27.9419 2.15608 26.0197 2.15608H20.3536V26.3268C20.3536 29.0036 20.4189 30.7634 20.5472 31.6051C20.6778 32.448 21.0286 33.0698 21.602 33.4742C22.1718 33.8774 23.2472 34.0796 24.8234 34.0796H26.5387V35.2423H8.96938V34.0796H10.7899C12.296 34.0796 13.3411 33.8951 13.9206 33.5248C14.5024 33.1545 14.8738 32.5773 15.0371 31.7943C15.204 31.0126 15.2851 29.1893 15.2851 26.3268V2.15608H10.0605C7.79116 2.15608 6.26697 2.26188 5.48915 2.47113C4.7077 2.68274 3.97585 3.31754 3.29117 4.37907C2.6065 5.43943 2.08271 7.05582 1.71981 9.22709"
      fill="#171717"
    ></path>
    <path
      fill-rule="evenodd"
      clip-rule="evenodd"
      d="M66.8478 18.0685H48.4487V26.3268C48.4487 29.0212 48.5189 30.7834 48.6568 31.618C48.7947 32.4515 49.1455 33.0698 49.7092 33.4742C50.2717 33.8774 51.3423 34.0796 52.9185 34.0796H53.8269V35.2423H37.9766V34.0796H38.885C40.3911 34.0796 41.4362 33.8951 42.0157 33.5248C42.5975 33.1545 42.9689 32.5773 43.1334 31.7943C43.2991 31.0126 43.3802 29.1893 43.3802 26.3268V9.53038C43.3802 6.80425 43.2991 5.04444 43.1334 4.25211C42.9689 3.46096 42.6229 2.91432 42.0955 2.61103C41.5669 2.30773 40.4092 2.15608 38.6237 2.15608H37.9766V0.994629H53.8269V2.15608H53.1773C51.4644 2.15608 50.337 2.29598 49.7999 2.57223C49.2628 2.85084 48.9048 3.36926 48.7221 4.12633C48.5394 4.88456 48.4487 6.68552 48.4487 9.53038V16.3251H66.8478V9.53038C66.8478 6.80425 66.7716 5.04444 66.6144 4.25211C66.4608 3.46096 66.116 2.91432 65.5886 2.61103C65.06 2.30773 63.9023 2.15608 62.1192 2.15608H61.1842V0.994629H77.2184V2.15608H76.6994C74.9672 2.15608 73.8301 2.29598 73.2954 2.57223C72.7583 2.85084 72.3978 3.36926 72.2152 4.12633C72.0325 4.88456 71.9418 6.68552 71.9418 9.53038V26.3268C71.9418 29.0212 72.0071 30.7834 72.1378 31.618C72.2672 32.4515 72.6192 33.0698 73.1902 33.4742C73.7623 33.8774 74.8353 34.0796 76.414 34.0796H77.2184V35.2423H61.1842V34.0796H62.4047C63.8962 34.0796 64.9293 33.8951 65.5112 33.5248C66.0906 33.1545 66.4608 32.5773 66.6144 31.7943C66.7716 31.0126 66.8478 29.1893 66.8478 26.3268V18.0685"
      fill="#171717"
    ></path>
    <path
      fill-rule="evenodd"
      clip-rule="evenodd"
      d="M175.849 36.0052H80.7031L80.7031 0.994629H175.849V36.0052V36.0052Z"
      fill="white"
    ></path>
    <path
      fill-rule="evenodd"
      clip-rule="evenodd"
      d="M109.395 24.5846H110.641L109.888 35.2423H80.7031V34.0796H81.4301C83.1781 34.0796 84.3104 33.8528 84.8221 33.399C85.3313 32.944 85.6567 32.3668 85.7971 31.6686C85.935 30.9703 86.0051 29.1893 86.0051 26.3268V9.53038C86.0051 6.92181 85.9301 5.20431 85.7825 4.37907C85.635 3.55383 85.2987 2.97663 84.77 2.64864C84.2402 2.32066 83.1273 2.15608 81.4301 2.15608V0.994629H106.613L107.445 9.53038H106.222C105.668 7.14164 104.989 5.44413 104.184 4.44255C103.377 3.44097 102.419 2.80852 101.311 2.54755C100.203 2.28657 98.4176 2.15608 95.9583 2.15608H91.0724V16.5261H94.8152C96.5281 16.5261 97.7305 16.3851 98.4128 16.0971C99.0974 15.8126 99.5486 15.3788 99.7664 14.7969C99.9817 14.2162 100.089 13.0841 100.089 11.4007H101.311V23.1187H100.089C100.089 21.2166 99.9248 19.9412 99.5958 19.2922C99.2656 18.6445 98.7865 18.2237 98.1527 18.0297C97.5224 17.8369 96.4519 17.7393 94.9434 17.7393H91.0724V25.846C91.0724 29.9052 91.3386 32.2916 91.8769 33.0063C92.414 33.7223 93.862 34.0796 96.2172 34.0796H98.8434C100.697 34.0796 102.221 33.8492 103.417 33.3861C104.612 32.9229 105.751 31.9719 106.836 30.5318C107.917 29.0929 108.771 27.1097 109.395 24.5846"
      fill="#171717"
    ></path>
    <path
      fill-rule="evenodd"
      clip-rule="evenodd"
      d="M162.307 36.0757H161.138L150.404 7.83875L141.024 36.0757H139.775L131.277 9.4046C130.515 6.97941 129.964 5.36772 129.627 4.56834C129.289 3.76895 128.846 3.17882 128.302 2.80029C127.755 2.42176 126.85 2.20663 125.586 2.15608V0.994629H138.814V2.15608C137.219 2.25718 136.198 2.48054 135.747 2.82615C135.296 3.17177 135.072 3.65492 135.072 4.27797C135.072 4.83284 135.436 6.25644 136.163 8.54644L142.451 28.4981L151.652 0.994629H153.108L163.452 28.4981L168.832 10.3145C169.542 7.85521 169.898 6.24821 169.898 5.49115C169.898 3.26816 168.675 2.15608 166.232 2.15608V0.994629H175.849V2.15608C174.428 2.25718 173.372 2.76738 172.677 3.68431C171.985 4.60243 171.108 6.80425 170.052 10.2886L162.307 36.0757"
      fill="#171717"
    ></path>
    <path
      fill-rule="evenodd"
      clip-rule="evenodd"
      d="M206.411 24.5846H207.657L206.905 35.2423H177.719V34.0796H178.446C180.194 34.0796 181.326 33.8528 181.838 33.399C182.347 32.944 182.672 32.3668 182.813 31.6686C182.951 30.9703 183.021 29.1893 183.021 26.3268V9.53038C183.021 6.92181 182.946 5.20431 182.798 4.37907C182.651 3.55383 182.314 2.97663 181.786 2.64864C181.256 2.32066 180.143 2.15608 178.446 2.15608V0.994629H203.629L204.461 9.53038H203.238C202.685 7.14164 202.004 5.44413 201.2 4.44255C200.394 3.44097 199.435 2.80852 198.327 2.54755C197.219 2.28657 195.433 2.15608 192.974 2.15608H188.088V16.5261H191.831C193.545 16.5261 194.746 16.3851 195.428 16.0971C196.113 15.8126 196.564 15.3788 196.782 14.7969C196.997 14.2162 197.105 13.0841 197.105 11.4007H198.327V23.1187H197.105C197.105 21.2166 196.942 19.9412 196.611 19.2922C196.282 18.6445 195.802 18.2237 195.17 18.0297C194.538 17.8369 193.467 17.7393 191.959 17.7393H188.088V25.846C188.088 29.9052 188.355 32.2916 188.893 33.0063C189.431 33.7223 190.878 34.0796 193.234 34.0796H195.859C197.712 34.0796 199.236 33.8492 200.434 33.3861C201.628 32.9229 202.766 31.9719 203.851 30.5318C204.934 29.0929 205.787 27.1097 206.411 24.5846"
      fill="#171717"
    ></path>
    <path
      fill-rule="evenodd"
      clip-rule="evenodd"
      d="M239.675 24.5846H240.921L240.169 35.2423H210.984V34.0796H211.711C213.459 34.0796 214.59 33.8528 215.103 33.399C215.613 32.944 215.937 32.3668 216.077 31.6686C216.215 30.9703 216.285 29.1893 216.285 26.3268V9.53038C216.285 6.92181 216.211 5.20431 216.064 4.37907C215.916 3.55383 215.58 2.97663 215.051 2.64864C214.52 2.32066 213.409 2.15608 211.711 2.15608V0.994629H236.894L237.727 9.53038H236.504C235.95 7.14164 235.27 5.44413 234.465 4.44255C233.659 3.44097 232.7 2.80852 231.592 2.54755C230.484 2.28657 228.699 2.15608 226.24 2.15608H221.354V16.5261H225.096C226.809 16.5261 228.012 16.3851 228.694 16.0971C229.379 15.8126 229.83 15.3788 230.048 14.7969C230.262 14.2162 230.369 13.0841 230.369 11.4007H231.592V23.1187H230.369C230.369 21.2166 230.206 19.9412 229.877 19.2922C229.547 18.6445 229.068 18.2237 228.434 18.0297C227.804 17.8369 226.732 17.7393 225.225 17.7393H221.354V25.846C221.354 29.9052 221.62 32.2916 222.158 33.0063C222.695 33.7223 224.142 34.0796 226.498 34.0796H229.123C230.978 34.0796 232.502 33.8492 233.698 33.3861C234.894 32.9229 236.032 31.9719 237.116 30.5318C238.198 29.0929 239.051 27.1097 239.675 24.5846"
      fill="#171717"
    ></path>
    <path
      fill-rule="evenodd"
      clip-rule="evenodd"
      d="M254.726 18.4212L265.486 9.0002C267.98 6.82894 269.228 5.27955 269.228 4.35321C269.228 2.95664 267.98 2.22427 265.486 2.15608V0.994629H278.766V2.15608C277.674 2.17254 276.578 2.4006 275.479 2.83791C274.379 3.27522 273.369 3.84772 272.449 4.5554C271.531 5.26192 269.827 6.75253 267.33 9.02607L260.911 14.784L274.114 27.741C277.129 30.7211 279.147 32.5232 280.168 33.1451C281.193 33.7693 282.517 34.0796 284.144 34.0796V35.2423H265.85V34.0796H266.552C268.527 34.0796 269.757 33.9198 270.24 33.6012C270.727 33.2803 270.97 32.8853 270.97 32.4139C270.97 31.7062 269.712 30.1321 267.202 27.6905L257.248 17.9415L254.726 20.0893V26.3268C254.726 29.0212 254.796 30.7834 254.934 31.618C255.072 32.4515 255.422 33.0698 255.986 33.4742C256.549 33.8774 257.627 34.0796 259.221 34.0796H259.899V35.2423H244.07V34.0796H245.163C246.67 34.0796 247.713 33.8951 248.292 33.5248C248.875 33.1545 249.247 32.5773 249.412 31.7943C249.576 31.0126 249.658 29.1893 249.658 26.3268V9.53038C249.658 6.70316 249.567 4.90102 249.384 4.12633C249.204 3.35163 248.845 2.83086 248.307 2.56048C247.769 2.29127 246.514 2.15608 244.538 2.15608V0.994629H260.132V2.15608H259.483C257.748 2.15608 256.615 2.29598 256.076 2.57223C255.539 2.85084 255.181 3.36926 255 4.12633C254.817 4.88456 254.726 6.68552 254.726 9.53038V18.4212"
      fill="#171717"
    ></path>
  </g>
</svg>

<svg width="285" height="37" viewBox="0 0 285 37" fill="none" xmlns="http://www.w3.org/2000/svg"><g opacity=".5" fill-rule="evenodd" clip-rule="evenodd"><path d="M1.72 9.227H.523L.706.995h34.201l.183 8.232h-1.118c-.4-2.255-.943-3.884-1.638-4.886-.692-1.001-1.438-1.616-2.235-1.843-.797-.228-2.157-.342-4.08-.342h-5.665v24.17c0 2.678.065 4.437.193 5.28.13.842.482 1.464 1.055 1.868.57.403 1.645.606 3.221.606h1.716v1.162H8.969V34.08h1.82c1.507 0 2.552-.185 3.132-.555.581-.37.953-.948 1.116-1.73.167-.782.248-2.606.248-5.468V2.157H10.06c-2.269 0-3.793.105-4.57.314-.782.212-1.514.847-2.199 1.908-.684 1.06-1.208 2.677-1.571 4.848M66.848 18.069h-18.4v8.258c0 2.694.07 4.456.209 5.291.138.834.489 1.452 1.052 1.856.563.403 1.633.606 3.21.606h.908v1.162h-15.85V34.08h.908c1.506 0 2.551-.185 3.13-.555.582-.37.954-.948 1.118-1.73.166-.782.247-2.606.247-5.468V9.53c0-2.726-.08-4.486-.247-5.278-.164-.791-.51-1.338-1.038-1.641-.528-.303-1.686-.455-3.471-.455h-.647V.995h15.85v1.161h-.65c-1.713 0-2.84.14-3.377.416-.537.279-.895.797-1.078 1.554-.183.759-.273 2.56-.273 5.404v6.795h18.399V9.53c0-2.726-.076-4.486-.234-5.278-.153-.791-.498-1.338-1.025-1.641-.529-.303-1.687-.455-3.47-.455h-.935V.995h16.034v1.161H76.7c-1.732 0-2.869.14-3.404.416-.537.279-.897.797-1.08 1.554-.183.759-.273 2.56-.273 5.404v16.797c0 2.694.065 4.456.196 5.291.13.834.481 1.452 1.052 1.856.572.403 1.645.606 3.224.606h.804v1.162H61.184V34.08h1.22c1.492 0 2.525-.185 3.107-.555.58-.37.95-.948 1.103-1.73.158-.782.234-2.606.234-5.468v-8.259" fill="#171717"/><path d="M175.849 36.005H80.703V.995h95.146v35.01Z" fill="#fff"/><path d="M109.395 24.585h1.246l-.753 10.657H80.703V34.08h.727c1.748 0 2.88-.227 3.392-.681.51-.455.835-1.032.975-1.73.138-.699.208-2.48.208-5.342V9.53c0-2.608-.075-4.326-.222-5.15-.148-.826-.484-1.403-1.013-1.731-.53-.328-1.643-.493-3.34-.493V.995h25.183l.832 8.535h-1.223c-.554-2.388-1.233-4.086-2.038-5.087-.807-1.002-1.765-1.634-2.873-1.895-1.108-.261-2.893-.392-5.353-.392h-4.886v14.37h3.743c1.713 0 2.916-.14 3.598-.429.684-.284 1.136-.718 1.353-1.3.216-.58.323-1.713.323-3.396h1.222v11.718h-1.222c0-1.902-.164-3.178-.493-3.827-.33-.648-.81-1.068-1.443-1.262-.63-.193-1.701-.29-3.21-.29h-3.87v8.106c0 4.06.266 6.446.804 7.16.537.716 1.985 1.074 4.34 1.074h2.626c1.854 0 3.378-.23 4.574-.694 1.195-.463 2.334-1.414 3.419-2.854 1.081-1.44 1.935-3.422 2.559-5.947M162.307 36.076h-1.169L150.404 7.839l-9.38 28.237h-1.249l-8.498-26.671c-.762-2.426-1.313-4.037-1.65-4.837-.338-.799-.781-1.39-1.325-1.768-.547-.378-1.452-.593-2.716-.644V.995h13.228v1.161c-1.595.101-2.616.325-3.067.67-.451.346-.675.829-.675 1.452 0 .555.364 1.978 1.091 4.268l6.288 19.952L151.652.995h1.456l10.344 27.503 5.38-18.183c.71-2.46 1.066-4.067 1.066-4.824 0-2.223-1.223-3.335-3.666-3.335V.995h9.617v1.161c-1.421.101-2.477.611-3.172 1.528-.692.918-1.569 3.12-2.625 6.605l-7.745 25.787M206.411 24.585h1.246l-.752 10.657h-29.186V34.08h.727c1.748 0 2.88-.227 3.392-.681a3.07 3.07 0 0 0 .975-1.73c.138-.699.208-2.48.208-5.342V9.53c0-2.608-.075-4.326-.223-5.15-.147-.826-.484-1.403-1.012-1.731-.53-.328-1.643-.493-3.34-.493V.995h25.183l.832 8.535h-1.223c-.553-2.388-1.234-4.086-2.038-5.087-.806-1.002-1.765-1.634-2.873-1.895-1.108-.261-2.894-.392-5.353-.392h-4.886v14.37h3.743c1.714 0 2.915-.14 3.597-.429.685-.284 1.136-.718 1.354-1.3.215-.58.323-1.713.323-3.396h1.222v11.718h-1.222c0-1.902-.163-3.178-.494-3.827-.329-.648-.809-1.068-1.441-1.262-.632-.193-1.703-.29-3.211-.29h-3.871v8.106c0 4.06.267 6.446.805 7.16.538.716 1.985 1.074 4.341 1.074h2.625c1.853 0 3.377-.23 4.575-.694 1.194-.463 2.332-1.414 3.417-2.854 1.083-1.44 1.936-3.422 2.56-5.947M239.675 24.585h1.246l-.752 10.657h-29.185V34.08h.727c1.748 0 2.879-.227 3.392-.681.51-.455.834-1.032.974-1.73.138-.699.208-2.48.208-5.342V9.53c0-2.608-.074-4.326-.221-5.15-.148-.826-.484-1.403-1.013-1.731-.531-.328-1.642-.493-3.34-.493V.995h25.183l.833 8.535h-1.223c-.554-2.388-1.234-4.086-2.039-5.087-.806-1.002-1.765-1.634-2.873-1.895-1.108-.261-2.893-.392-5.352-.392h-4.886v14.37h3.742c1.713 0 2.916-.14 3.598-.429.685-.284 1.136-.718 1.354-1.3.214-.58.321-1.713.321-3.396h1.223v11.718h-1.223c0-1.902-.163-3.178-.492-3.827-.33-.648-.809-1.068-1.443-1.262-.63-.193-1.702-.29-3.209-.29h-3.871v8.106c0 4.06.266 6.446.804 7.16.537.716 1.984 1.074 4.34 1.074h2.625c1.855 0 3.379-.23 4.575-.694 1.196-.463 2.334-1.414 3.418-2.854 1.082-1.44 1.935-3.422 2.559-5.947M254.726 18.421l10.76-9.42c2.494-2.172 3.742-3.721 3.742-4.648 0-1.396-1.248-2.129-3.742-2.197V.995h13.28v1.161c-1.092.017-2.188.245-3.287.682-1.1.437-2.11 1.01-3.03 1.717-.918.707-2.622 2.198-5.119 4.471l-6.419 5.758 13.203 12.957c3.015 2.98 5.033 4.782 6.054 5.404 1.025.624 2.349.935 3.976.935v1.162H265.85V34.08h.702c1.975 0 3.205-.16 3.688-.479.487-.32.73-.716.73-1.187 0-.708-1.258-2.282-3.768-4.724l-9.954-9.748-2.522 2.147v6.238c0 2.694.07 4.456.208 5.291.138.834.488 1.452 1.052 1.856.563.403 1.641.606 3.235.606h.678v1.162H244.07V34.08h1.093c1.507 0 2.55-.185 3.129-.555.583-.37.955-.948 1.12-1.73.164-.782.246-2.606.246-5.468V9.53c0-2.827-.091-4.629-.274-5.404-.18-.774-.539-1.295-1.077-1.566-.538-.269-1.793-.404-3.769-.404V.995h15.594v1.161h-.649c-1.735 0-2.868.14-3.407.416-.537.279-.895.797-1.076 1.554-.183.759-.274 2.56-.274 5.404v8.891" fill="#171717"/></g></svg>
